X:347
T:Stoney Steps
Z: id:dc-reel-323
M:C
L:1/8
K:D Major
dB|A3B AFF2|ABdf edBA|FAA2 BAGF|GFEG FD:|!
de|fedc defg|afbf afeg|fded fded|BdAF E2de|!
fedc defg|afbf afeg|f3a e2de|fgaf ef|]!

